src/images/money.svg

<svg width="16" height="16" viewBox="0 0 16 16" fill="none" xmlns="http://www.w3.org/2000/svg">
<path d="M1.77325 11.4976C2.03916 11.2064 2.41734 11.0394 2.81091 11.0394C2.85347 11.0394 2.89666 11.0414 2.93916 11.0453L3.09172 11.0591C2.52866 10.1566 2.21875 9.10258 2.21875 8.00027C2.21875 7.1793 2.39144 6.37623 2.72266 5.63733L2.97356 5.88823C3.25459 6.16926 3.73587 5.99502 3.77184 5.5992L4.02138 2.85452C4.04788 2.56298 3.80363 2.31873 3.51209 2.34523L0.767406 2.59477C0.371625 2.63073 0.197375 3.11202 0.478406 3.39305L1.07606 3.9907C0.369969 5.20498 0 6.57608 0 8.00027C0 9.28692 0.312844 10.5658 0.904625 11.6987C1.05506 11.9866 1.22394 12.2651 1.40875 12.5329C1.38531 12.1539 1.51666 11.7786 1.77325 11.4976Z" fill="#FFA63F"/>
<path d="M12.413 14.5944C12.0195 14.5944 11.6413 14.4273 11.3754 14.1361C11.1097 13.8452 10.9778 13.4532 11.0135 13.0607L11.0256 12.9278C10.13 13.4782 9.08803 13.7812 7.99978 13.7812C7.17881 13.7812 6.37575 13.6085 5.63684 13.2773L5.88775 13.0264C6.16878 12.7453 5.99453 12.264 5.59871 12.2281L2.85403 11.9785C2.5625 11.952 2.31825 12.1963 2.34475 12.4878L2.59428 15.2325C2.63025 15.6283 3.11153 15.8026 3.39256 15.5216L3.99021 14.9239C5.2045 15.63 6.57559 15.9999 7.99978 15.9999C9.28246 15.9999 10.5578 15.6889 11.688 15.1006C11.9805 14.9483 12.2634 14.7768 12.5352 14.589C12.4947 14.5926 12.4536 14.5944 12.4131 14.5944C12.4131 14.5944 12.4131 14.5944 12.413 14.5944Z" fill="#FFA63F"/>
<path d="M14.9124 12.0293C15.626 10.8102 15.9999 9.43231 15.9999 7.99997C15.9999 6.71331 15.6871 5.43444 15.0953 4.30156C14.9449 4.01363 14.776 3.73516 14.5912 3.46741C14.6146 3.84634 14.4833 4.22166 14.2267 4.50266C13.9608 4.79381 13.5826 4.96081 13.1891 4.96081C13.189 4.96081 13.189 4.96081 13.189 4.96081C13.1464 4.96081 13.1033 4.95884 13.0608 4.95497L12.9082 4.94109C13.4713 5.84363 13.7812 6.89766 13.7812 7.99997C13.7812 8.82919 13.6052 9.63963 13.2675 10.3844L12.9951 10.112C12.7141 9.83094 12.2328 10.0052 12.1968 10.401L11.9473 13.1457C11.9208 13.4372 12.165 13.6815 12.4566 13.6549L15.2013 13.4054C15.5971 13.3694 15.7713 12.8882 15.4903 12.6071L14.9124 12.0293Z" fill="#FFA63F"/>
<path d="M13.6551 3.51209L13.4056 0.767406C13.3696 0.371625 12.8884 0.197375 12.6073 0.478406L12.0097 1.07606C10.7954 0.369969 9.42434 0 8.00015 0C6.71349 0 5.43462 0.312844 4.30174 0.904625C4.01387 1.05503 3.73546 1.22384 3.46777 1.40859C3.49705 1.40678 3.52643 1.4055 3.55559 1.4055C3.94915 1.4055 4.32734 1.57253 4.59324 1.86369C4.85896 2.15469 4.99087 2.54663 4.95515 2.93916L4.94127 3.09172C5.8438 2.52866 6.89784 2.21875 8.00015 2.21875C8.82112 2.21875 9.62418 2.39144 10.3631 2.72266L10.1122 2.97356C9.83118 3.25459 10.0054 3.73587 10.4012 3.77184L13.1459 4.02138C13.4374 4.04788 13.6816 3.80363 13.6551 3.51209Z" fill="#FFA63F"/>
<path d="M8 7.53125C7.43997 7.53125 6.98438 7.07566 6.98438 6.51562C6.98438 5.95559 7.43997 5.5 8 5.5C8.56003 5.5 9.01562 5.95559 9.01562 6.51562C9.01562 6.7745 9.2255 6.98438 9.48438 6.98438C9.74325 6.98438 9.95312 6.7745 9.95312 6.51562C9.95312 5.60025 9.32 4.83028 8.46875 4.61975V4.25C8.46875 3.99112 8.25887 3.78125 8 3.78125C7.74112 3.78125 7.53125 3.99112 7.53125 4.25V4.61975C6.68 4.83028 6.04688 5.60025 6.04688 6.51562C6.04688 7.59259 6.92303 8.46875 8 8.46875C8.56003 8.46875 9.01562 8.92434 9.01562 9.48438C9.01562 10.0444 8.56003 10.5 8 10.5C7.43997 10.5 6.98438 10.0444 6.98438 9.48438C6.98438 9.2255 6.7745 9.01562 6.51562 9.01562C6.25675 9.01562 6.04688 9.2255 6.04688 9.48438C6.04688 10.3997 6.68 11.1697 7.53125 11.3802V11.75C7.53125 12.0089 7.74112 12.2188 8 12.2188C8.25887 12.2188 8.46875 12.0089 8.46875 11.75V11.3802C9.32 11.1697 9.95312 10.3997 9.95312 9.48438C9.95312 8.40741 9.07697 7.53125 8 7.53125Z" fill="#FFA63F"/>
</svg>

<svg width="16" height="16" fill="none" xmlns="http://www.w3.org/2000/svg"><path d="M1.773 11.498a1.409 1.409 0 011.166-.453l.153.014A5.768 5.768 0 012.219 8c0-.82.172-1.624.504-2.363l.25.251a.469.469 0 00.799-.289l.25-2.744a.469.469 0 00-.51-.51l-2.745.25a.469.469 0 00-.289.798l.598.598a8.019 8.019 0 00-.171 7.708c.15.288.319.566.504.834a1.41 1.41 0 01.364-1.035zm10.64 3.096a1.409 1.409 0 01-1.4-1.533l.013-.133A5.77 5.77 0 018 13.78a5.77 5.77 0 01-2.363-.504l.25-.25a.469.469 0 00-.288-.799l-2.745-.25a.469.469 0 00-.51.51l.25 2.745a.47.47 0 00.799.289l.597-.598a8.02 8.02 0 007.698.177 8.11 8.11 0 00.847-.512c-.04.004-.081.005-.122.005zm2.499-2.564a8.018 8.018 0 00.183-7.728 7.948 7.948 0 00-.504-.835 1.41 1.41 0 01-1.402 1.494 1.42 1.42 0 01-.128-.006l-.153-.014c.563.903.873 1.957.873 3.059 0 .83-.176 1.64-.514 2.384l-.272-.272a.469.469 0 00-.798.289l-.25 2.745a.469.469 0 00.51.509l2.744-.25a.469.469 0 00.29-.798l-.579-.578zm-1.257-8.518l-.25-2.745a.469.469 0 00-.798-.289l-.597.598A8.018 8.018 0 004.302.905c-.288.15-.567.319-.834.504.03-.002.058-.004.088-.004a1.409 1.409 0 011.4 1.534l-.015.153a5.768 5.768 0 013.06-.873 5.77 5.77 0 012.362.504l-.25.25a.469.469 0 00.288.799l2.745.25a.469.469 0 00.51-.51zM8 7.531A1.017 1.017 0 018 5.5c.56 0 1.016.456 1.016 1.016a.469.469 0 00.937 0c0-.916-.633-1.686-1.484-1.896v-.37a.469.469 0 00-.938 0v.37c-.851.21-1.484.98-1.484 1.896 0 1.077.876 1.953 1.953 1.953A1.017 1.017 0 018 10.5c-.56 0-1.016-.456-1.016-1.016a.469.469 0 00-.937 0c0 .916.633 1.686 1.484 1.896v.37a.469.469 0 10.938 0v-.37a1.956 1.956 0 001.484-1.896A1.955 1.955 0 008 7.531z" fill="#FFA63F"/></svg>
